X:273
T:
R:polska
S:Ur von Baumgartens samling, Visby.
O:Gotland, Visby
M:3/4
L:1/16
K:Bb
B2FB d2d2 d4|d2Bd f2f2 f4|b2bf d2df B2Bd|cdcB ABAG F4|
B2FB d2d2 d4|d2Bd f2f2 f4|b2bg g2ab a2gf|=efga g4 f4::
f2fa g2ge e2ed|cdef g2f2 edcB|c2eg f2fe dcBA|Bcde f2fe dcBA|
B2FB d2d2 d4|d2Bd f2f2 f4|b2bf g2gf edcB|ABcA B4 B,4:|

